Hatter-kde/actions/symbolic/process-stop-symbolic.svg

<?xml version="1.0" encoding="UTF-8" standalone="no"?>
<svg
   xmlns:dc="http://purl.org/dc/elements/1.1/"
   xmlns:cc="http://creativecommons.org/ns#"
   xmlns:rdf="http://www.w3.org/1999/02/22-rdf-syntax-ns#"
   xmlns:svg="http://www.w3.org/2000/svg"
   xmlns="http://www.w3.org/2000/svg"
   id="svg6"
   version="1.1"
   width="16"
   height="16">
  <metadata
     id="metadata12">
    <rdf:RDF>
      <cc:Work
         rdf:about="">
        <dc:format>image/svg+xml</dc:format>
        <dc:type
           rdf:resource="http://purl.org/dc/dcmitype/StillImage" />
      </cc:Work>
    </rdf:RDF>
  </metadata>
  <defs
     id="defs10" />
  <path
     id="path2-3"
     d="M 8,1 C 4.14,1 1,4.14 1,8 c 0,3.86 3.14,7 7,7 3.86,0 7,-3.14 7,-7 C 15,4.14 11.86,1 8,1 Z M 5.4941406,4.9941406 a 0.5,0.5 0 0 1 0.359375,0.1523438 L 8,7.2929688 10.146484,5.1464844 a 0.5,0.5 0 0 1 0.34375,-0.1503906 0.5,0.5 0 0 1 0.363282,0.8574218 L 8.7070312,8 10.853516,10.146484 a 0.50027817,0.50027817 0 1 1 -0.707032,0.707032 L 8,8.7070312 5.8535156,10.853516 A 0.50027817,0.50027817 0 0 1 5.1464844,10.146484 L 7.2929688,8 5.1464844,5.8535156 a 0.5,0.5 0 0 1 0.3476562,-0.859375 z"
     style="line-height:normal;font-variant-ligatures:normal;font-variant-position:normal;font-variant-caps:normal;font-variant-numeric:normal;font-variant-alternates:normal;font-feature-settings:normal;text-indent:0;text-align:start;text-decoration:none;text-decoration-line:none;text-decoration-style:solid;text-decoration-color:#000000;text-transform:none;text-orientation:mixed;shape-padding:0;opacity:1;isolation:auto;mix-blend-mode:normal;font-variation-settings:normal;vector-effect:none;fill:#363636;fill-opacity:1;stroke-width:1;stroke-linecap:butt;stroke-linejoin:miter;stroke-miterlimit:4;stroke-dasharray:none;stroke-dashoffset:0;stroke-opacity:1" />
</svg>

<?xml version="1.0" encoding="UTF-8"?>
<svg id="svg6" width="16" height="16" version="1.1" xmlns="http://www.w3.org/2000/svg" xmlns:cc="http://creativecommons.org/ns#" xmlns:dc="http://purl.org/dc/elements/1.1/" xmlns:rdf="http://www.w3.org/1999/02/22-rdf-syntax-ns#">
 <metadata id="metadata12">
  <rdf:RDF>
   <cc:Work rdf:about="">
    <dc:format>image/svg+xml</dc:format>
    <dc:type rdf:resource="http://purl.org/dc/dcmitype/StillImage"/>
   </cc:Work>
  </rdf:RDF>
 </metadata>
 <path id="path2-3" d="m8 1c-3.86 0-7 3.14-7 7s3.14 7 7 7 7-3.14 7-7-3.14-7-7-7zm-2.5059 3.9941a0.5 0.5 0 0 1 0.35938 0.15234l2.1465 2.1465 2.1465-2.1465a0.5 0.5 0 0 1 0.34375-0.15039 0.5 0.5 0 0 1 0.36328 0.85742l-2.1465 2.1465 2.1465 2.1465a0.50028 0.50028 0 1 1-0.70703 0.70703l-2.1465-2.1465-2.1465 2.1465a0.50028 0.50028 0 0 1-0.70703-0.70703l2.1465-2.1465-2.1465-2.1465a0.5 0.5 0 0 1 0.34766-0.85938z" fill="#363636" style="font-feature-settings:normal;font-variant-alternates:normal;font-variant-caps:normal;font-variant-ligatures:normal;font-variant-numeric:normal;font-variant-position:normal;font-variation-settings:normal;isolation:auto;mix-blend-mode:normal;shape-padding:0;text-decoration-color:#000000;text-decoration-line:none;text-decoration-style:solid;text-indent:0;text-orientation:mixed;text-transform:none"/>
</svg>
